%
OBigChannelVersion01

( POSTPROCESSOR: Tormach_PCNC_Mach3 )
( GENERATED BY SprutCAM )
( DATE: 10/16/2019 )
( TIME: 1:19:45 PM )

(Tool) (31) (Diameter)(0.25) (PS) (Operation) (Roughing waterline)
(Tool) (11) (Diameter)(0.063) (PS) (Operation) (Roughing waterline2)
(Tool) (11) (Diameter)(0.063) (PS) (Operation) (2D contouring)

N10 G90 G64 G50 G54 G80 G17 G40 G49
N20 G20 (Inch)
(Roughing waterline)
N30 M998
(PS)
N50 S3500 M3 M8
N60 G0 G94 X0.6605 Y-0.6977 Z0.05
N70 G1 Z0. F12
N80 G3 X0.6391 Y-0.8559 Z-0.0093 I0.0679 J-0.0897
N90 X0.6391 Y-0.8559 Z-0.0464 I0.0893 J0.0685
N100 X0.6391 Y-0.8559 Z-0.0834 I0.0893 J0.0685
N110 X0.6391 Y-0.8559 Z-0.1204 I0.0893 J0.0685
N120 X0.6391 Y-0.8559 Z-0.1575 I0.0893 J0.0685
N130 X0.6391 Y-0.8559 Z-0.1575 I0.0893 J0.0685
N140 X0.6719 Y-0.8982 Z-0.1575 I0.1039 J0.0467
N150 X0.7284 Y-0.9242 Z-0.1575 I0.0812 J0.1019
N160 G1 Y-0.7992
N170 X2.6299
N180 Y-0.7756
N190 X0.7165
N200 Y-0.7992
N210 X0.7284
N220 Y-0.9242
N230 X2.7549
N240 Y-0.6506
N250 X0.5915
N260 Y-0.9242
N270 X0.7284
N280 Y-1.0492
N290 X2.8799
N300 Y-0.5256
N310 X0.4665
N320 Y-1.0492
N330 X0.7284
N340 Y-1.1742
N350 X3.0049
N360 Y-0.4006
N370 X0.3415
N380 Y-1.1742
N390 X0.7284
N400 Z-0.0394
N410 Y-1.2628
N420 X3.0345
N430 Y-0.312
N440 X0.312
N450 Y-1.2628
N460 X0.7284
N470 G0 Z0.05
N480 M5 M9

(Roughing waterline2)
N490 M998
N500 T11 G43 H11 M6
(PS)
N510 S5000 M3 M8
N520 G0 X0.2183 Y-0.3042 Z0.05
N530 G1 Z-0.0394 F7.9
N540 X0.218 Y-0.2598
N550 G3 X0.1956 Y-0.2355 Z-0.0394 I-0.031 J-0.0061
N560 G1 X0.206 Y-0.2061
N570 G3 X0.1834 Y-0.2029 Z-0.0394 I-0.02 J-0.0603
N580 G2 X0.2033 Y-0.1898 Z-0.0394 I0.0037 J0.016
N590 G3 X0.206 Y-0.2061 Z-0.0394 I0.0493 J0.0001
N600 G1 X0.1956 Y-0.2355
N610 X0.1764 Y-0.2334
N620 G2 X0.2345 Y-0.1901 Z-0.0394 I0.0106 J0.0464
N630 G3 X0.2627 Y-0.2183 Z-0.0394 I0.0312 J0.0031
N640 G1 X0.3034
N650 G0 Z0.05
N660 X0.2183 Y-1.2713
N670 G1 Z-0.0394
N680 X0.218 Y-1.315
N690 G2 X0.1956 Y-1.3393 Z-0.0394 I-0.031 J0.0061
N700 G1 X0.2061 Y-1.3687
N710 G2 X0.1834 Y-1.3719 Z-0.0394 I-0.02 J0.0598
N720 G3 X0.2032 Y-1.385 Z-0.0394 I0.0037 J-0.0159
N730 G1 X0.2061 Y-1.3687
N740 X0.1956 Y-1.3393
N750 X0.1766 Y-1.3413
N760 G3 X0.2345 Y-1.3849 Z-0.0394 I0.0104 J-0.0464
N770 G2 X0.2627 Y-1.3566 Z-0.0394 I0.0312 J-0.0028
N780 G1 X0.3037
N790 G0 Z0.05
N800 X3.0428
N810 G1 Z-0.0394
N820 X3.0865 Y-1.3568
N830 G2 X3.1103 Y-1.3771 Z-0.0394 I-0.006 J-0.0312
N840 G1 X3.1404 Y-1.3687
N850 G2 X3.1433 Y-1.3904 Z-0.0394 I-0.0497 J-0.0175
N860 G3 X3.1567 Y-1.3716 Z-0.0394 I0.0162 J0.0027
N870 G1 X3.1404 Y-1.3687
N880 X3.1103 Y-1.3771
N890 G2 X3.1117 Y-1.3883 Z-0.0394 I-0.0194 J-0.0081
N900 G3 X3.1566 Y-1.3403 Z-0.0394 I0.0476 J0.0004
N910 G2 X3.1282 Y-1.3121 Z-0.0394 I0.0028 J0.0312
N920 G1 Y-1.2713
N930 G0 Z0.05
N940 Y-0.3035
N950 G1 Z-0.0394
N960 X3.1285 Y-0.26
N970 G2 X3.1488 Y-0.2361 Z-0.0394 I0.0312 J-0.006
N980 G1 X3.1404 Y-0.206
N990 G2 X3.1621 Y-0.2032 Z-0.0394 I0.0176 J-0.0497
N1000 G3 X3.1432 Y-0.1898 Z-0.0394 I-0.0027 J0.0162
N1010 G1 X3.1404 Y-0.206
N1020 X3.1488 Y-0.2361
N1030 G2 X3.1599 Y-0.2347 Z-0.0394 I0.0081 J-0.0194
N1040 G3 X3.112 Y-0.1899 Z-0.0394 I-0.0004 J0.0476
N1050 G2 X3.0838 Y-0.2183 Z-0.0394 I-0.0312 J0.0028
N1060 G1 X3.0427
N1070 X3.0125 Y-0.3068
N1080 Z-0.0625
N1090 X3.0987
N1100 Y-0.3926
N1110 Z-0.125
N1120 Y-0.3068
N1130 X3.0125
N1140 Z-0.1575
N1150 X3.0987
N1160 Y-0.3926
N1170 G0 Z0.05
N1180 X2.6856 Y-0.0999
N1190 G1 Z0.
N1200 G3 X2.6558 Y-0.1265 Z-0.0069 I-0.0281 J0.0015
N1210 X2.6558 Y-0.1265 Z-0.0162 I0.0017 J0.0281
N1220 X2.6558 Y-0.1265 Z-0.0255 I0.0017 J0.0281
N1230 X2.6558 Y-0.1265 Z-0.0347 I0.0017 J0.0281
N1240 X2.6558 Y-0.1265 Z-0.044 I0.0017 J0.0281
N1250 X2.6558 Y-0.1265 Z-0.0532 I0.0017 J0.0281
N1260 X2.6558 Y-0.1265 Z-0.0625 I0.0017 J0.0281
N1270 X2.6558 Y-0.1265 Z-0.0625 I0.0017 J0.0281
N1280 X2.6767 Y-0.1249 Z-0.0625 I0.0084 J0.0278
N1290 X2.6944 Y-0.1058 Z-0.0625 I-0.0153 J0.032
N1300 G1 X2.6638 Y-0.0997
N1310 G3 X2.6638 Y-0.0997 Z-0.0625 I-0.0063 J0.0013
N1320 G1 X2.6944 Y-0.1058
N1330 G3 X2.6944 Y-0.1058 Z-0.0625 I-0.0369 J0.0073
N1340 G1 X2.6856 Y-0.0999
N1350 G3 X2.6558 Y-0.1265 Z-0.0694 I-0.0281 J0.0015
N1360 X2.6558 Y-0.1265 Z-0.0787 I0.0017 J0.0281
N1370 X2.6558 Y-0.1265 Z-0.088 I0.0017 J0.0281
N1380 X2.6558 Y-0.1265 Z-0.0972 I0.0017 J0.0281
N1390 X2.6558 Y-0.1265 Z-0.1065 I0.0017 J0.0281
N1400 X2.6558 Y-0.1265 Z-0.1157 I0.0017 J0.0281
N1410 X2.6558 Y-0.1265 Z-0.125 I0.0017 J0.0281
N1420 X2.6558 Y-0.1265 Z-0.125 I0.0017 J0.0281
N1430 X2.6767 Y-0.1249 Z-0.125 I0.0084 J0.0278
N1440 X2.6944 Y-0.1058 Z-0.125 I-0.0153 J0.032
N1450 G1 X2.6638 Y-0.0997
N1460 G3 X2.6638 Y-0.0997 Z-0.125 I-0.0063 J0.0013
N1470 G1 X2.6944 Y-0.1058
N1480 G3 X2.6944 Y-0.1058 Z-0.125 I-0.0369 J0.0073
N1490 G1 X2.6605 Y-0.0705
N1500 G3 X2.6558 Y-0.1265 Z-0.1297 I-0.003 J-0.028
N1510 X2.6558 Y-0.1265 Z-0.139 I0.0017 J0.0281
N1520 X2.6558 Y-0.1265 Z-0.1482 I0.0017 J0.0281
N1530 X2.6558 Y-0.1265 Z-0.1575 I0.0017 J0.0281
N1540 X2.6558 Y-0.1265 Z-0.1575 I0.0017 J0.0281
N1550 X2.6767 Y-0.1249 Z-0.1575 I0.0084 J0.0278
N1560 X2.6944 Y-0.1058 Z-0.1575 I-0.0153 J0.032
N1570 G1 X2.6638 Y-0.0997
N1580 G3 X2.6638 Y-0.0997 Z-0.1575 I-0.0063 J0.0013
N1590 G1 X2.6944 Y-0.1058
N1600 G3 X2.6944 Y-0.1058 Z-0.1575 I-0.0369 J0.0073
N1610 G0 Z0.05
N1620 X3.0987 Y-1.1822
N1630 Z0.0313
N1640 G1 Z-0.0625
N1650 Y-1.268
N1660 X3.0124
N1670 Z-0.125
N1680 X3.0987
N1690 Y-1.1822
N1700 Z-0.1575
N1710 Y-1.268
N1720 X3.0124
N1730 G0 Z0.05
N1740 X2.6856 Y-1.4779
N1750 G1 Z0.
N1760 G3 X2.6558 Y-1.5045 Z-0.0069 I-0.0281 J0.0015
N1770 X2.6558 Y-1.5045 Z-0.0162 I0.0017 J0.0281
N1780 X2.6558 Y-1.5045 Z-0.0255 I0.0017 J0.0281
N1790 X2.6558 Y-1.5045 Z-0.0347 I0.0017 J0.0281
N1800 X2.6558 Y-1.5045 Z-0.044 I0.0017 J0.0281
N1810 X2.6558 Y-1.5045 Z-0.0532 I0.0017 J0.0281
N1820 X2.6558 Y-1.5045 Z-0.0625 I0.0017 J0.0281
N1830 X2.6558 Y-1.5045 Z-0.0625 I0.0017 J0.0281
N1840 X2.6767 Y-1.5028 Z-0.0625 I0.0084 J0.0278
N1850 X2.6944 Y-1.4837 Z-0.0625 I-0.0153 J0.032
N1860 G1 X2.6638 Y-1.4776
N1870 G3 X2.6638 Y-1.4776 Z-0.0625 I-0.0063 J0.0013
N1880 G1 X2.6944 Y-1.4837
N1890 G3 X2.6944 Y-1.4837 Z-0.0625 I-0.0369 J0.0074
N1900 G1 X2.6856 Y-1.4779
N1910 G3 X2.6558 Y-1.5045 Z-0.0694 I-0.0281 J0.0015
N1920 X2.6558 Y-1.5045 Z-0.0787 I0.0017 J0.0281
N1930 X2.6558 Y-1.5045 Z-0.088 I0.0017 J0.0281
N1940 X2.6558 Y-1.5045 Z-0.0972 I0.0017 J0.0281
N1950 X2.6558 Y-1.5045 Z-0.1065 I0.0017 J0.0281
N1960 X2.6558 Y-1.5045 Z-0.1157 I0.0017 J0.0281
N1970 X2.6558 Y-1.5045 Z-0.125 I0.0017 J0.0281
N1980 X2.6558 Y-1.5045 Z-0.125 I0.0017 J0.0281
N1990 X2.6767 Y-1.5028 Z-0.125 I0.0084 J0.0278
N2000 X2.6944 Y-1.4837 Z-0.125 I-0.0153 J0.032
N2010 G1 X2.6638 Y-1.4776
N2020 G3 X2.6638 Y-1.4776 Z-0.125 I-0.0063 J0.0013
N2030 G1 X2.6944 Y-1.4837
N2040 G3 X2.6944 Y-1.4837 Z-0.125 I-0.0369 J0.0074
N2050 G1 X2.6605 Y-1.4484
N2060 G3 X2.6558 Y-1.5045 Z-0.1297 I-0.003 J-0.028
N2070 X2.6558 Y-1.5045 Z-0.139 I0.0017 J0.0281
N2080 X2.6558 Y-1.5045 Z-0.1482 I0.0017 J0.0281
N2090 X2.6558 Y-1.5045 Z-0.1575 I0.0017 J0.0281
N2100 X2.6558 Y-1.5045 Z-0.1575 I0.0017 J0.0281
N2110 X2.6767 Y-1.5028 Z-0.1575 I0.0084 J0.0278
N2120 X2.6944 Y-1.4837 Z-0.1575 I-0.0153 J0.032
N2130 G1 X2.6638 Y-1.4776
N2140 G3 X2.6638 Y-1.4776 Z-0.1575 I-0.0063 J0.0013
N2150 G1 X2.6944 Y-1.4837
N2160 G3 X2.6944 Y-1.4837 Z-0.1575 I-0.0369 J0.0074
N2170 G0 Z0.05
N2180 X0.7034 Y-1.5006
N2190 G1 Z0.
N2200 G3 X0.6647 Y-1.4906 Z-0.0069 I-0.0144 J0.0242
N2210 X0.6647 Y-1.4906 Z-0.0162 I0.0243 J0.0142
N2220 X0.6647 Y-1.4906 Z-0.0255 I0.0243 J0.0142
N2230 X0.6647 Y-1.4906 Z-0.0347 I0.0243 J0.0142
N2240 X0.6647 Y-1.4906 Z-0.044 I0.0243 J0.0142
N2250 X0.6647 Y-1.4906 Z-0.0532 I0.0243 J0.0142
N2260 X0.6647 Y-1.4906 Z-0.0625 I0.0243 J0.0142
N2270 X0.6647 Y-1.4906 Z-0.0625 I0.0243 J0.0142
N2280 X0.6776 Y-1.507 Z-0.0625 I0.0278 J0.0085
N2290 X0.7034 Y-1.5112 Z-0.0625 I0.0181 J0.0305
N2300 G1 X0.6914 Y-1.4823
N2310 G3 X0.6914 Y-1.4823 Z-0.0625 I-0.0024 J0.0059
N2320 G1 X0.7034 Y-1.5112
N2330 G3 X0.7034 Y-1.5112 Z-0.0625 I-0.0144 J0.0348
N2340 G1 Y-1.5006
N2350 G3 X0.6647 Y-1.4906 Z-0.0694 I-0.0144 J0.0242
N2360 X0.6647 Y-1.4906 Z-0.0787 I0.0243 J0.0142
N2370 X0.6647 Y-1.4906 Z-0.088 I0.0243 J0.0142
N2380 X0.6647 Y-1.4906 Z-0.0972 I0.0243 J0.0142
N2390 X0.6647 Y-1.4906 Z-0.1065 I0.0243 J0.0142
N2400 X0.6647 Y-1.4906 Z-0.1157 I0.0243 J0.0142
N2410 X0.6647 Y-1.4906 Z-0.125 I0.0243 J0.0142
N2420 X0.6647 Y-1.4906 Z-0.125 I0.0243 J0.0142
N2430 X0.6776 Y-1.507 Z-0.125 I0.0278 J0.0085
N2440 X0.7034 Y-1.5112 Z-0.125 I0.0181 J0.0305
N2450 G1 X0.6914 Y-1.4823
N2460 G3 X0.6914 Y-1.4823 Z-0.125 I-0.0024 J0.0059
N2470 G1 X0.7034 Y-1.5112
N2480 G3 X0.7034 Y-1.5112 Z-0.125 I-0.0144 J0.0348
N2490 G1 X0.7139 Y-1.4633
N2500 G3 X0.6647 Y-1.4906 Z-0.1297 I-0.0249 J-0.0131
N2510 X0.6647 Y-1.4906 Z-0.139 I0.0243 J0.0142
N2520 X0.6647 Y-1.4906 Z-0.1482 I0.0243 J0.0142
N2530 X0.6647 Y-1.4906 Z-0.1575 I0.0243 J0.0142
N2540 X0.6647 Y-1.4906 Z-0.1575 I0.0243 J0.0142
N2550 X0.6776 Y-1.507 Z-0.1575 I0.0278 J0.0085
N2560 X0.7034 Y-1.5112 Z-0.1575 I0.0181 J0.0305
N2570 G1 X0.6914 Y-1.4823
N2580 G3 X0.6914 Y-1.4823 Z-0.1575 I-0.0024 J0.0059
N2590 G1 X0.7034 Y-1.5112
N2600 G3 X0.7034 Y-1.5112 Z-0.1575 I-0.0144 J0.0348
N2610 G0 Z0.05
N2620 X0.3341 Y-1.268
N2630 Z0.0313
N2640 G1 Z-0.0625
N2650 X0.2478
N2660 Y-1.1822
N2670 Z-0.125
N2680 Y-1.268
N2690 X0.3341
N2700 Z-0.1575
N2710 X0.2478
N2720 Y-1.1822
N2730 G0 Z0.05
N2740 Y-0.3933
N2750 Z0.0313
N2760 G1 Z-0.0625
N2770 Y-0.3068
N2780 X0.334
N2790 Z-0.125
N2800 X0.2478
N2810 Y-0.3933
N2820 Z-0.1575
N2830 Y-0.3068
N2840 X0.334
N2850 G0 Z0.05
N2860 X0.7171 Y-0.0999
N2870 G1 Z0.
N2880 G3 X0.6873 Y-0.1265 Z-0.0069 I-0.0281 J0.0015
N2890 X0.6873 Y-0.1265 Z-0.0162 I0.0017 J0.0281
N2900 X0.6873 Y-0.1265 Z-0.0255 I0.0017 J0.0281
N2910 X0.6873 Y-0.1265 Z-0.0347 I0.0017 J0.0281
N2920 X0.6873 Y-0.1265 Z-0.044 I0.0017 J0.0281
N2930 X0.6873 Y-0.1265 Z-0.0532 I0.0017 J0.0281
N2940 X0.6873 Y-0.1265 Z-0.0625 I0.0017 J0.0281
N2950 X0.6873 Y-0.1265 Z-0.0625 I0.0017 J0.0281
N2960 X0.7082 Y-0.1249 Z-0.0625 I0.0084 J0.0278
N2970 X0.7259 Y-0.1058 Z-0.0625 I-0.0153 J0.032
N2980 G1 X0.6953 Y-0.0997
N2990 G3 X0.6953 Y-0.0997 Z-0.0625 I-0.0063 J0.0013
N3000 G1 X0.7259 Y-0.1058
N3010 G3 X0.7259 Y-0.1058 Z-0.0625 I-0.0369 J0.0073
N3020 G1 X0.7171 Y-0.0999
N3030 G3 X0.6873 Y-0.1265 Z-0.0694 I-0.0281 J0.0015
N3040 X0.6873 Y-0.1265 Z-0.0787 I0.0017 J0.0281
N3050 X0.6873 Y-0.1265 Z-0.088 I0.0017 J0.0281
N3060 X0.6873 Y-0.1265 Z-0.0972 I0.0017 J0.0281
N3070 X0.6873 Y-0.1265 Z-0.1065 I0.0017 J0.0281
N3080 X0.6873 Y-0.1265 Z-0.1157 I0.0017 J0.0281
N3090 X0.6873 Y-0.1265 Z-0.125 I0.0017 J0.0281
N3100 X0.6873 Y-0.1265 Z-0.125 I0.0017 J0.0281
N3110 X0.7082 Y-0.1249 Z-0.125 I0.0084 J0.0278
N3120 X0.7259 Y-0.1058 Z-0.125 I-0.0153 J0.032
N3130 G1 X0.6953 Y-0.0997
N3140 G3 X0.6953 Y-0.0997 Z-0.125 I-0.0063 J0.0013
N3150 G1 X0.7259 Y-0.1058
N3160 G3 X0.7259 Y-0.1058 Z-0.125 I-0.0369 J0.0073
N3170 G1 X0.6919 Y-0.0705
N3180 G3 X0.6873 Y-0.1265 Z-0.1297 I-0.003 J-0.028
N3190 X0.6873 Y-0.1265 Z-0.139 I0.0017 J0.0281
N3200 X0.6873 Y-0.1265 Z-0.1482 I0.0017 J0.0281
N3210 X0.6873 Y-0.1265 Z-0.1575 I0.0017 J0.0281
N3220 X0.6873 Y-0.1265 Z-0.1575 I0.0017 J0.0281
N3230 X0.7082 Y-0.1249 Z-0.1575 I0.0084 J0.0278
N3240 X0.7259 Y-0.1058 Z-0.1575 I-0.0153 J0.032
N3250 G1 X0.6953 Y-0.0997
N3260 G3 X0.6953 Y-0.0997 Z-0.1575 I-0.0063 J0.0013
N3270 G1 X0.7259 Y-0.1058
N3280 G3 X0.7259 Y-0.1058 Z-0.1575 I-0.0369 J0.0073
N3290 G0 Z0.05

(2D contouring)
N3300 X1.6732 Y0.0313
N3310 Z0.0313
N3320 G1 Z-0.0625
N3330 X3.3465
N3340 G2 X3.3777 Y0. Z-0.0625 I0. J-0.0312
N3350 G1 Y-1.5748
N3360 G2 X3.3465 Y-1.6061 Z-0.0625 I-0.0312 J0.
N3370 G1 X0.
N3380 G2 X-0.0313 Y-1.5748 Z-0.0625 I0. J0.0313
N3390 G1 Y0.
N3400 G2 X0. Y0.0313 Z-0.0625 I0.0313 J0.
N3410 G1 X1.6732
N3420 Z-0.125
N3430 X3.3465
N3440 G2 X3.3777 Y0. Z-0.125 I0. J-0.0312
N3450 G1 Y-1.5748
N3460 G2 X3.3465 Y-1.6061 Z-0.125 I-0.0312 J0.
N3470 G1 X0.
N3480 G2 X-0.0313 Y-1.5748 Z-0.125 I0. J0.0313
N3490 G1 Y0.
N3500 G2 X0. Y0.0313 Z-0.125 I0.0313 J0.
N3510 G1 X1.6732
N3520 Z-0.1575
N3530 X3.3465
N3540 G2 X3.3777 Y0. Z-0.1575 I0. J-0.0312
N3550 G1 Y-1.5748
N3560 G2 X3.3465 Y-1.6061 Z-0.1575 I-0.0312 J0.
N3570 G1 X0.
N3580 G2 X-0.0313 Y-1.5748 Z-0.1575 I0. J0.0313
N3590 G1 Y0.
N3600 G2 X0. Y0.0313 Z-0.1575 I0.0313 J0.
N3610 G1 X1.6732
N3620 G0 Z0.05
N3630 M5 M9
N3640 M998
N3650 M30
%
